X:1
T:103. En fin l'Amour
C:Jacob van Eyck
Z:Transcribed by Laura Conrad: http://www.laymusic.org
M:C
K:C
V:1
L:1/4
|: E | E > F G G | A > B c > d | c c G c | B3 c | A B/ c/ d > c | d e f > e | e3 ::
w:En fin l'A- mour n'a plus de peine A blesser le coeur~des mor- telz, Les~doux at-  traits de Liss- mene Luy font ac- que- rir 
c | d B e c | B > A A B/ c/ | d G A > G | G4 | z d e f | g e2 e | f d e > d | c/ B/ c d > c | c3 :|
w:des au- telz Cette jeu- ne beau- t qui n'a point _ de  se- conde, D'un seul de ses re- gards peut charm- er peut char- * mer tout le monde.
V:2
L:1/8
|: "M. 2."E2 | E C E F G C G E | A D A B c3 d | c c B A G A/ B/ c d/ c/ |B6 c > B | A A B c d G B c | d G d e f e d g/ f/ e6 ::
c2 | d > c  B G e > d c d | B > A G B A A B c | d D G c/B/A G d D | G8 | z2 d G e c f d | g f e E F D E e | f d g f e > f e d c A B c d e d/ G/ A/ B/ | c6 :|
V:3
L:1/16
|: "M. 3." E4 | E2 C D E2 E F G2 E F G2 c B | A2 d c B2 A G c6 d2 | c2 c d B c A B G2 A B c A d c | B12 c3 B | A2 A2 B2 c2 d2 G2 G A B c | d2 G A B c d e f2 e f g a f g | e12 ::
c2 B c | d2 d c B2 c d e2 e d c2 d c | B2 E F G A B c A2 G A B2 B c | d2 D2 G A B c A2 d c B c A B | G16 | z4 d2 c d e2 d e f2 e f | g a f g e2 E2 F D G F E2 e2 | f2 d2 g2 f2 e d e f e2 d2 | c2 E F G A B c d2 g f e f d e | c12 :|
V:4
|: "M. 4." E4 | E F E D C D E F G E C G E G C G | A C D E F G A B c6 d2 | c d c d B c A B G A B G c A d c | B8 z2 A B c d B c | A B A c B d c e d2 G F G A B c | d e f g e f g a f g a _b g a f g | e12 ::
c E F E | d F G F B D E D e G A G c E F E | B D E F G A B c A C D C B D c E | d D E D G F G E A D G E A D ^F D | G16 | z4 d F G F e G A G f A _B A | g B c B e G A B c d e f e G A G | f A B A d F G F e G A G E G d G | c E F E c A B c d F G F B D E D | c C D E F G A B c d e f g G A B | Hc16 :|





%wordsfont Times-Roman 13.0
%vocalfont Times-Roman 13.0
